X:1
T:Hail Sweet Babe, So Pure and Holy
T:George Edgar Oliver
T:Hail Sweet Babe, So Pure and Holy
T:Public Domain
T:Public Domain
C:George Edgar Oliver
Z:Public Domain
%%score ( 1 2 ) ( 3 4 )
L:1/8
M:6/8
K:Bb
V:1 treble 
V:2 treble 
V:3 bass 
V:4 bass 
V:1
 [Dd]2 [DB] [DF]2 [DF] | (G>A)[=CG] [CG]2 [DF] | (F>G)[DA] (B>A)[DB] | (Gd)[_Ec] [Ec]3 | %4
w: 1.~Hail, sweet Babe, so|pure * and ho- ly!|fair * Son of * Ma-|Roy- * al In-|
w: 2.~Peace on earth, good|will * from Heav- en,|ing * far as * man|Man * re- deemed|
w: 3.~Let us sing the|won- * drous sto- ry|our * great Re- * deem-|That * the bright-|
 [Dd]2 [DA] (B>A)[DG] | [Cc]2 [CG] (A>G)[CF] | (FG)[F^G] (A^e)[Fd] | (cG)[_EA] F3 | %8
w: in a man- * ger,|art gent- ly * laid|rest. * Filled with * awe|der * rap- ture,|
w: sin for- giv- * en;|the gold- en * harps|sound. * Christ is * born,|A- * noint- ed,|
w: of His glo- * ry|and co- ver * all|earth; * Born to * reign,|a- * dore Him,|
 (A>G)[EF] (A>G)[EF] | (FB)[Dc] [=E^c]2 [Fd] | (A>G)[EF] (A>G)[EF] | (GD)[DG] [DF]3 | %12
w: joy * Thy mo- * ther|the * night Thy fos-|fa- * ther By * Thee|vi- * gil keeps.|
w: earth * glad wel- * come|Lord * Christ, the God|point- * ed As * our|Priest * and King.|
w: a- * tion praise * its|we * ev- er sing|fore * Him, Glo- * ry|God * on high!|
 [EG]2 [EG] [FG]2 [FG] | ([EG][Gf])[Ge] [Gd]2 [Gc] | (B>A)[DG] [DF]2 [Dd] | (cF)[Ec] [DB]3 |] %16
w: ||||
w: ||||
w: ||||
V:2
 x6 | ^C2 x4 | D2 D2 x2 | =E2 x4 | x3 D2 x | x3 C2 x | F2 F2 x2 | =E2 F3 x | E2 E2 x2 | D2 x4 | %10
w: |Hail,|ry blest!|fant|Thou|to|and ten-|Tears of|weeps, Through|ter|
w: |Reach-|is found;|and|Hear|re-|the great|Heaven and|sing. Hail!|ap-|
w: |Of|er’s birth,|ness|Spread|the|let all|All cre-|Lord, May|be-|
 E2 E2 x2 | D2 x4 | x6 | x6 | ^C2 x4 | E2 x4 |] %16
w: faith- ful||||||
w: Pro- phet,||||||
w: be to||||||
V:3
 [B,,F,]2 [B,,F,] [B,,F,]2 [B,,F,] | [B,,=E,]2 [B,,E,] [B,,E,]2 [B,,F,] | %2
 [B,,F,]2 [B,,F,] [G,,G,]2 [G,,G,] | [C,B,]2 [C,B,] [F,A,]3 | [^F,A,]2 [F,A,] ([G,B,]>[A,C])B, | %5
 [=E,G,]2 [E,G,] ([F,A,]>[G,B,])A, | [D,=B,]2 [_D,B,] ([C,A,][=B,,_A,])[B,,A,] | %7
 [C,B,]2 [C,C] [F,A,]3 | (C>B,)[F,A,] (C>B,)[F,A,] | (B,F,)[B,,F,] [B,,G,]2 [B,,F,] | %10
 (C>B,)[F,A,] (C>B,)[F,A,] | [B,,B,]2 [B,,B,] [B,,B,]3 | [E,B,]2 [E,B,] [D,=B,]2 [D,B,] | %13
 [C,C]2 [C,C] [D,=B,]2 [E,C] | [=E,G,]2 [E,G,] [F,B,]2 [F,B,] | [F,A,]2 [F,,A,] [B,,B,]3 |] %16
V:4
 x6 | x6 | x6 | x6 | x5 B, | x5 A, | x6 | x6 | F,2 F,2 x2 | B,,2 x4 | F,2 F,2 x2 | x6 | x6 | x6 | %14
 x6 | x6 |] %16

